X:916
T:The Ranting Rake.
B:O'Neill's 916
Z:Transcribed by Tom Keays (htkeays@mailbox.syr.edu)
Z:abc 1.6
M:6/8
R:Jig
L:1/8
K:G
B/2A/2|GAG G2g|dBd dBd|ege dBd|ABA ABA|
GAG G2g|dBd dBd|ege dBd|GAG G2 :|
||G/2B/2|d3 e3|ded dBG|cdc BdB|AGA BGE|
d3 B3|BAGA Bge|dBd gdB|GAG G2 :|
